!!!!SEGMENT: pl-wru--50044-muz--001-002_buchner-philipp-friedrich--plectrum-musicum-sonata-ii.krn
!!!cenid: 16xx:1803
!!!COM: Buchner, Philipp Friedrich
!!!COM-rismID: pe30013776
!!!CDT: 1614/09/10-1669/03/23
!!!CNT: German
!!!GTL: Plectrum musicum
!!!OTL: Sonata II
!!!OMV: 002
!!!PDT: 1662
!!!AGN: Secular; Sonata
!!!YEC: Copyright 2022 Narodowy Instytut Fryderyka Chopina (https://polishscores.org)
!!!YEM: License CC-BY-4.0 (https://creativecommons.org/licenses/by/4.0)
!!!SMS-siglum: PL-WRu
!!!SMS-shelfmark: 50044 Muz.
!!!SMS-shelfwork: 001-002 G
!!!SMS-variant:
!!!SMS-altvar:
!!!NIFC-rismSourceID: 990007465
!!!NIFC-rismChildID: 990007465
!!!NIFC-islandoraID: none
!!!URL-pdf-islandora:
!!!URL-scan: https://www.bibliotekacyfrowa.pl/dlibra/doccontent?id=116 @EN{Scan on Digital Library of University of Wroclaw} @PL{Skany w portalu Biblioteka Cyfrowa Uniwersytetu Wrocławskiego}
!!!IIIF:
!!!ONB-nifc: UWAGA: Violino I: s. 4-5, Violino II: s. 23-24, Bassus: s. 67, Bassus continuus: s. 82
!!!AIN: 2 violn
!!!key: C
**kern	**fba	**kern	**fba	**kern	**kern
*part4	*	*part3	*	*part2	*part1
*staff4	*	*staff3	*	*staff2	*staff1
*I"Bassus Continuus.	*	*I"Bassus	*	*I"Violino II	*I"Violino I
*I'bc	*	*I'b	*	*I'vl II	*I'vl I
*	*	*	*	*ICstr	*ICstr
*	*	*	*	*Ivioln	*Ivioln
*IGcont	*	*IGcont	*	*	*
*clefF4	*	*clefF4	*	*clefG2	*clefG2
*k[]	*	*k[]	*	*k[]	*k[]
*C:	*	*C:	*	*C:	*C:
*M2/2	*	*M2/2	*	*M2/2	*M2/2
*met(C|)	*	*met(C|)	*	*met(C|)	*met(C|)
=1-	=1-	=1-	=1-	=1-	=1-
!LO:TX:b:t=Adagio.	!	!LO:TX:b:t=Adagio.	!	!LO:TX:b:t=Adagio.	!
1C	.	1C	.	0r	4r
!	!	!	!	!	!LO:TX:b:t=Adagio.
.	.	.	.	.	4.gg\
.	.	.	.	.	8ee\
.	.	.	.	.	8.cc\
!	!	!	!	!	!LO:TX:t=P:problem:kreska pseudotaktowa
.	.	.	.	.	16dd\
=2-	=2-	=2-	=2-	=2-	=2-
4AA/	.	4AA/	.	.	8ee\
.	.	.	.	.	8cc\
4FF/	.	4FF/	.	.	4.ff\
4GG/	7	4GG/	7	.	.
.	.	.	.	.	8ee\
4C/	.	4C/	.	.	8ee\
.	.	.	.	.	8dd\
=3-	=3-	=3-	=3-	=3-	=3-
2GG/	4:3	2GG/	4:3	2r	2dd\
!LO:TX:t=P:problem:kreska pseudotaktowa	!	!LO:TX:t=P:problem:kreska pseudotaktowa	!	!	!
2C/	.	2C/	.	4r	2cc\
.	.	.	.	4.cc\	.
=4-	=4-	=4-	=4-	=4-	=4-
2G\	4:3	2G\	4:3	.	1r
.	.	.	.	8b/	.
.	.	.	.	8.g/	.
.	.	.	.	16a/	.
4E\	.	4E\	.	8b/	.
.	.	.	.	8g/	.
!	!	!	!	!LO:TX:t=P:problem:kreska pseudotaktowa	!
4C/	.	4C/	.	4.cc\	.
=5-	=5-	=5-	=5-	=5-	=5-
4D/	7	4D/	7	.	2r
.	.	.	.	8b/	.
4GG/	.	4GG/	.	8b/	.
.	.	.	.	8a/	.
!LO:TX:t=P:problem:kreska pseudotaktowa	!	!LO:TX:t=P:problem:kreska pseudotaktowa	!	!	!
2D/	4#r	2D/	4#r	2a/	4r
.	.	.	.	.	8.dd\
!	!	!	!	!	!LO:TX:t=P:problem:kreska pseudotaktowa
.	.	.	.	.	16cc\
=6-	=6-	=6-	=6-	=6-	=6-
4G\	.	4G\	.	2g/	8b/
.	.	.	.	.	16a/
.	.	.	.	.	16b/
4E\	6	4E\	6	.	8.cc\
.	.	.	.	.	16b/
!	!	!	!	!LO:TX:t=P:problem:kreska pseudotaktowa	!
4F\	.	4F\	.	2r	8a/
.	.	.	.	.	16g/
.	.	.	.	.	16a/
4D/	6	4D/	6	.	4b/
=7-	=7-	=7-	=7-	=7-	=7-
4E\	6 #	4E\	6 #	2r	4cc#X\
4D/	.	4D/	.	.	2dd\
!LO:TX:t=P:problem:kreska pseudotaktowa	!	!LO:TX:t=P:problem:kreska pseudotaktowa	!	!	!
2E\	7:6 #	2E\	7:6 #	4r	.
!	!	!	!	!	!LO:TX:t=P:problem:kreska pseudotaktowa
.	.	.	.	4.gg\	4cc#X\
=8-	=8-	=8-	=8-	=8-	=8-
[2D/	4:3	[2D/	4:3	.	2dd\
.	.	.	.	8ff\	.
.	.	.	.	8.dd\	.
.	.	.	.	16ee\	.
2D/]	-	2D/]	-	8ff\	2r
.	.	.	.	8dd\	.
!	!	!	!	!LO:TX:t=P:problem:kreska pseudotaktowa	!
.	.	.	.	4.dd\	.
=9-	=9-	=9-	=9-	=9-	=9-
2A\	4:3	2A\	4:3	.	4r
.	.	.	.	8cc\	.
.	.	.	.	8.a/	4.ccny\
.	.	.	.	16b/	.
!LO:TX:t=P:problem:kreska pseudotaktowa	!	!LO:TX:t=P:problem:kreska pseudotaktowa	!	!	!
2E\	6:5	2E\	6:5	4cc\	.
.	.	.	.	.	8b/
!	!	!	!	!LO:TX:t=P:problem:kreska pseudotaktowa	!
.	.	.	.	4r	8.g/
.	.	.	.	.	16a/
*	*	*	*	*	*custos:b
!	!	!	!	!	!LO:LB:g=original
=10-	=10-	=10-	=10-	=10-	=10-
[<2G\	.	[<2G\	.	1r	8b/
.	.	.	.	.	8g/
.	.	.	.	.	4.g/
2G\]	5:6	2G\]	5:6	.	.
.	.	.	.	.	8f/
.	.	.	.	.	8.d/
!	!	!	!	!	!LO:TX:t=P:problem:kreska pseudotaktowa
.	.	.	.	.	16e/
=11-	=11-	=11-	=11-	=11-	=11-
2D/	.	2D/	.	4r	4f/
.	.	.	.	4.dd\	4.ff\
!LO:TX:t=P:problem:kreska pseudotaktowa	!	!LO:TX:t=P:problem:kreska pseudotaktowa	!	!	!
[<2A\	6:5 4:3	[<2A\	6:5 4:3	.	.
.	.	.	.	8cc\	8ee\
.	.	.	.	8.a/	8.cc\
!	!	!	!	!	!LO:TX:t=P:problem:kreska pseudotaktowa
.	.	.	.	16b/	16dd\
*	*	*	*	*custos:cc	*
!	!	!	!	!LO:LB:g=original	!
=12-	=12-	=12-	=12-	=12-	=12-
4A\]	5	4A\]	5	8cc\	8ee\
.	.	.	.	8a/	8cc\
4F\	6	4F\	6	8.dd\	2ff\
.	.	.	.	16cc\	.
4G\	7	4G\	7	8b/	.
.	.	.	.	16a/	.
.	.	.	.	16b/	.
!LO:TX:t=P:problem:kreska pseudotaktowa	!	!LO:TX:t=P:problem:kreska pseudotaktowa	!	!	!
[4C/	.	[4C/	.	8.cc\	4ee\
!	!	!	!	!LO:TX:t=P:problem:kreska pseudotaktowa	!
.	.	.	.	16b/	.
=13-	=13-	=13-	=13-	=13-	=13-
4C/]	6:4	4C/]	6:4	8a/	4ff\
.	.	.	.	16g/	.
.	.	.	.	16a/	.
4BB/	6	4BB/	6	4b/	4.gg\
4AA/	7	4AA/	7	4cc#X\	.
.	.	.	.	.	8ff\
4DD/	.	4DD/	.	2dd\	8ff\
!	!	!	!	!	!LO:TX:t=P:problem:kreska pseudotaktowa
.	.	.	.	.	8ee\
*custos:AA	*	*custos:AA	*	*	*
!LO:LB:g=original	!	!LO:LB:g=original	!	!	!
=14-	=14-	=14-	=14-	=14-	=14-
2AA/	4#r	2AA/	4#r	.	2ee\
.	.	.	.	4cc#X\	.
!LO:TX:t=P:problem:kreska pseudotaktowa	!	!LO:TX:t=P:problem:kreska pseudotaktowa	!	!LO:TX:t=P:problem:kreska pseudotaktowa	!
[2D/	.	[2D/	.	2dd\	4dd\
.	.	.	.	.	8.aa\
!	!	!	!	!	!LO:TX:t=P:problem:kreska pseudotaktowa
.	.	.	.	.	16gg\
=15-	=15-	=15-	=15-	=15-	=15-
4D/]	#	4D/]	#	2r	8ff#X\
.	.	.	.	.	16ee\
.	.	.	.	.	16ff#\
4BB/	6	4BB/	6	.	8.gg\
.	.	.	.	.	16ff#\
4C/	.	4C/	.	4r	8ee\
.	.	.	.	.	16dd\
.	.	.	.	.	16ee\
!LO:TX:t=P:problem:kreska pseudotaktowa	!	!LO:TX:t=P:problem:kreska pseudotaktowa	!	!	!LO:TX:t=P:problem:kreska pseudotaktowa
4D/	#	4D/	#	8.dd\	4ff#X\
.	.	.	.	16ccny\	.
=16-	=16-	=16-	=16-	=16-	=16-
2E\	5:6	2E\	5:6	8b/	2gg\
.	.	.	.	16a/	.
.	.	.	.	16b/	.
.	.	.	.	8.cc\	.
.	.	.	.	16b/	.
*	*	*	*	*	*custos:ff
!	!	!	!	!	!LO:LB:g=original
4F\	.	4F\	.	8a/	4r
.	.	.	.	16g/	.
.	.	.	.	16a/	.
!	!	!	!	!LO:TX:t=P:problem:kreska pseudotaktowa	!
4D/	6	4D/	6	4b/	4.ffny\
=17-	=17-	=17-	=17-	=17-	=17-
[2C/	4:3	[2C/	4:3	4cc\	.
.	.	.	.	.	8ee\
.	.	.	.	4.cc\	8.cc\
.	.	.	.	.	16dd\
!	!	!	!	!	!LO:TX:t=P:problem:kreska pseudotaktowa
2C/]	5:6	2C/]	5:6	.	2ee\
.	.	.	.	8b/	.
.	.	.	.	8.g/	.
.	.	.	.	16a/	.
*	*	*	*	*custos:b	*
!	!	!	!	!LO:LB:g=original	!
=18-	=18-	=18-	=18-	=18-	=18-
2G\	.	2G\	.	4b/	4r
.	.	.	.	2b/	8.gg\
.	.	.	.	.	16ff\
4C/	7	4C/	7	.	8ee\
.	.	.	.	.	16dd\
.	.	.	.	.	16ee\
!LO:TX:t=P:problem:kreska pseudotaktowa	!	!LO:TX:t=P:problem:kreska pseudotaktowa	!	!	!
[<4F\	.	[<4F\	.	4a/	8.ff\
!	!	!	!	!	!LO:TX:t=P:problem:kreska pseudotaktowa
.	.	.	.	.	16ee\
=19-	=19-	=19-	=19-	=19-	=19-
4F\]	6 4	4F\]	6 4	4b/	8dd\
.	.	.	.	.	16cc\
.	.	.	.	.	16dd\
4E\	6	4E\	6	4.cc\	4ee\
4D/	7	4D/	7	.	4ff#X\
.	.	.	.	8b/	.
4GG/	.	4GG/	.	8b/	2gg\
.	.	.	.	8a/	.
=20-	=20-	=20-	=20-	=20-	=20-
2D/	4#r	2D/	4#r	2a/	.
.	.	.	.	.	4ff#X\
4GG/	.	4GG/	.	2g/	2gg\
!LO:TX:t=P:problem:kreska pseudotaktowa	!	!LO:TX:t=P:problem:kreska pseudotaktowa	!	!	!
4.G\	.	4.G\	.	.	.
=21-	=21-	=21-	=21-	=21-	=21-
.	.	.	.	4r	2r
8E\	.	8E\	.	.	.
8.C/	.	8.C/	.	4.cc\	.
16D/	.	16D/	.	.	.
2E\	.	2E\	.	.	4r
.	.	.	.	8b/	.
.	.	.	.	8.g/	4.gg\
.	.	.	.	16a/	.
=22-	=22-	=22-	=22-	=22-	=22-
4G\	6	4G\	6	8b/	.
.	.	.	.	8g/	8ffny\
4A\	.	4A\	.	2cc\	8.cc\
.	.	.	.	.	16dd\
2G\	6:5 4:3	2G\	6:5 4:3	.	8ee\
.	.	.	.	.	8cc\
.	.	.	.	4b/	4dd\
=23-	=23-	=23-	=23-	=23-	=23-
!LO:TX:t=P:problem:kreska pseudotaktowa	!	!LO:TX:t=P:problem:kreska pseudotaktowa	!	!LO:TX:t=P:problem:kreska pseudotaktowa	!
!	!	!	!	!LO:TX:b:t=allegro.	!
1C	.	1C	.	1cc	1cc
=24-	=24-	=24-	=24-	=24-	=24-
!LO:TX:b:t=allegro.	!	!LO:TX:b:t=allegro.	!	!	!
2C/	.	2C/	.	00r	8.g/
.	.	.	.	.	32a/
.	.	.	.	.	32b/
.	.	.	.	.	8cc\
.	.	.	.	.	8gg\
*	*	*	*	*	*custos:ee
!	!	!	!	!	!LO:LB:g=original
4E\	.	4E\	.	.	8.ee\
.	.	.	.	.	32dd\
.	.	.	.	.	32cc\
4G\	.	4G\	.	.	8b/
.	.	.	.	.	8g/
=25-	=25-	=25-	=25-	=25-	=25-
2D/	.	2D/	.	.	8.a/
.	.	.	.	.	32b/
.	.	.	.	.	32cc\
.	.	.	.	.	8dd\
.	.	.	.	.	8gg\
4F\	.	4F\	.	.	8.ff\
.	.	.	.	.	32ee\
.	.	.	.	.	32dd\
!LO:TX:t=P:problem:kreska pseudotaktowa	!	!LO:TX:t=P:problem:kreska pseudotaktowa	!	!	!
4A\	#	4A\	#	.	8cc#X\
!	!	!	!	!	!LO:TX:t=P:problem:kreska pseudotaktowa
.	.	.	.	.	8a/
*custos:AA	*	*custos:AA	*	*	*
!LO:LB:g=original	!	!LO:LB:g=original	!	!	!
=26-	=26-	=26-	=26-	=26-	=26-
2AA/	#	2AA/	#	.	8r
.	.	.	.	.	16a/
.	.	.	.	.	16ee\
.	.	.	.	.	16dd\
.	.	.	.	.	16cc#X\
.	.	.	.	.	16dd\
.	.	.	.	.	16b/
!LO:TX:t=P:problem:kreska pseudotaktowa	!	!LO:TX:t=P:problem:kreska pseudotaktowa	!	!	!
[2D/	#	[2D/	#	.	16cc#X\
.	.	.	.	.	16a/
.	.	.	.	.	16dd\
.	.	.	.	.	16gg\
.	.	.	.	.	16ff#X\
.	.	.	.	.	16gg\
.	.	.	.	.	16ee\
!	!	!	!	!	!LO:TX:t=P:problem:kreska pseudotaktowa
.	.	.	.	.	16ff#\
*	*	*	*	*	*custos:dd
!	!	!	!	!	!LO:PB:g=original
=27-	=27-	=27-	=27-	=27-	=27-
2D/]	#	2D/]	#	.	16dd\
.	.	.	.	.	16ee\
.	.	.	.	.	16ff#X\
.	.	.	.	.	16gg\
.	.	.	.	.	16aa\
.	.	.	.	.	16ff#X\
.	.	.	.	.	16ee\
.	.	.	.	.	16ff#\
2GG/	.	2GG/	.	.	16gg\
.	.	.	.	.	16g/
.	.	.	.	.	16dd\
.	.	.	.	.	16ccny\
.	.	.	.	.	16b/
.	.	.	.	.	16cc\
.	.	.	.	.	16a/
.	.	.	.	.	16b/
=28-	=28-	=28-	=28-	=28-	=28-
2G\	.	2G\	.	0r	16g/
.	.	.	.	.	16a/
.	.	.	.	.	16b/
.	.	.	.	.	16cc\
.	.	.	.	.	16dd\
.	.	.	.	.	16b/
.	.	.	.	.	16a/
.	.	.	.	.	16b/
!LO:TX:t=P:problem:kreska pseudotaktowa	!	!LO:TX:t=P:problem:kreska pseudotaktowa	!	!	!
[2C/	.	[2C/	.	.	16cc\
.	.	.	.	.	16ee\
.	.	.	.	.	16gg\
.	.	.	.	.	16ffny\
.	.	.	.	.	16ee\
.	.	.	.	.	16ff\
.	.	.	.	.	16dd\
!	!	!	!	!	!LO:TX:t=P:problem:kreska pseudotaktowa
.	.	.	.	.	16ee\
=29-	=29-	=29-	=29-	=29-	=29-
2C/]	.	2C/]	.	.	16cc\
.	.	.	.	.	16dd\
.	.	.	.	.	16ee\
.	.	.	.	.	16ff\
.	.	.	.	.	16gg\
.	.	.	.	.	16ee\
.	.	.	.	.	16dd\
.	.	.	.	.	16ee\
*	*	*	*	*	*custos:ff
!	!	!	!	!	!LO:LB:g=original
2FF/	.	2FF/	.	.	16ff\
.	.	.	.	.	16a/
.	.	.	.	.	16cc\
.	.	.	.	.	16b-X/
.	.	.	.	.	16a/
.	.	.	.	.	16b-X/
.	.	.	.	.	16g/
!	!	!	!	!	!LO:TX:t=P:problem:kreska pseudotaktowa
.	.	.	.	.	16a/
=30-	=30-	=30-	=30-	=30-	=30-
4.F\	.	4.F\	.	8.c/	4f/
.	.	.	.	32d/	.
.	.	.	.	32e/	.
.	.	.	.	8f/	4r
8E\	.	8E\	.	8cc\	.
4F\	.	4F\	.	8.a/	2r
.	.	.	.	32g/	.
.	.	.	.	32f/	.
!LO:TX:t=P:problem:kreska pseudotaktowa	!	!LO:TX:t=P:problem:kreska pseudotaktowa	!	!	!
4C/	.	4C/	.	8e/	.
!	!	!	!	!LO:TX:t=P:problem:kreska pseudotaktowa	!
.	.	.	.	8d/	.
=31-	=31-	=31-	=31-	=31-	=31-
4.G\	.	4.G\	.	8.d/	00r
.	.	.	.	32e/	.
.	.	.	.	32f/	.
.	.	.	.	8g/	.
8F#X\	.	8F#X\	.	8dd\	.
*	*	*	*	*custos:b-	*
!	!	!	!	!LO:LB:g=original	!
4G\	-	4G\	-	8.b-X/	.
.	.	.	.	32a/	.
.	.	.	.	32g/	.
!LO:TX:t=P:problem:kreska pseudotaktowa	!	!LO:TX:t=P:problem:kreska pseudotaktowa	!	!	!
4D/	#	4D/	#	8f#X/	.
!	!	!	!	!LO:TX:t=P:problem:kreska pseudotaktowa	!
.	.	.	.	8d/	.
=32-	=32-	=32-	=32-	=32-	=32-
2D/	#	2D/	#	16r	.
.	.	.	.	16d/	.
.	.	.	.	16a/	.
.	.	.	.	16g/	.
.	.	.	.	16f#X/	.
.	.	.	.	16g/	.
.	.	.	.	16e/	.
.	.	.	.	16f#X/	.
[2G\	.	[2G\	.	16d/	.
.	.	.	.	16g/	.
.	.	.	.	16dd\	.
.	.	.	.	16cc\	.
.	.	.	.	16bny/	.
.	.	.	.	16cc\	.
.	.	.	.	16a/	.
!	!	!	!	!LO:TX:t=P:problem:kreska pseudotaktowa	!
.	.	.	.	16b/	.
=33-	=33-	=33-	=33-	=33-	=33-
2G\]	.	2G\]	.	16g/	.
.	.	.	.	16a/	.
.	.	.	.	16b/	.
.	.	.	.	16cc\	.
.	.	.	.	16dd\	.
.	.	.	.	16b/	.
.	.	.	.	16a/	.
.	.	.	.	16b/	.
!LO:TX:t=P:problem:kreska pseudotaktowa	!	!LO:TX:t=P:problem:kreska pseudotaktowa	!	!	!
[2C/	.	[2C/	.	16cc\	.
.	.	.	.	16e/	.
.	.	.	.	16g/	.
.	.	.	.	16fny/	.
.	.	.	.	16e/	.
.	.	.	.	16f/	.
.	.	.	.	16d/	.
.	.	.	.	16e/	.
*	*	*	*	*custos:c	*
!	!	!	!	!LO:PB:g=original	!
=34-	=34-	=34-	=34-	=34-	=34-
2C/]	.	2C/]	.	16c/	.
.	.	.	.	16d/	.
.	.	.	.	16e/	.
.	.	.	.	16f/	.
.	.	.	.	16g/	.
.	.	.	.	16e/	.
.	.	.	.	16d/	.
.	.	.	.	16e/	.
2FF/	.	2FF/	.	16f/	.
.	.	.	.	16a/	.
.	.	.	.	16cc\	.
.	.	.	.	16b/	.
.	.	.	.	16a/	.
.	.	.	.	16b-X/	.
.	.	.	.	16g/	.
!	!	!	!	!LO:TX:t=P:problem:kreska pseudotaktowa	!
.	.	.	.	16a/	.
=35-	=35-	=35-	=35-	=35-	=35-
2Fny\	.	2Fny\	.	16f/	1r
.	.	.	.	16g/	.
.	.	.	.	16a/	.
.	.	.	.	16bny/	.
.	.	.	.	16cc\	.
.	.	.	.	16a/	.
.	.	.	.	16g/	.
.	.	.	.	16a/	.
2BB-X/	-	2BB-X/	-	16b-X/	.
.	.	.	.	16d/	.
.	.	.	.	16f/	.
.	.	.	.	16e/	.
.	.	.	.	16d/	.
.	.	.	.	16e-X/	.
.	.	.	.	16c/	.
!	!	!	!	!LO:TX:t=P:problem:kreska pseudotaktowa	!
.	.	.	.	16d/	.
=36-	=36-	=36-	=36-	=36-	=36-
[4GG/	#	[4GG/	#	4B-X/	16r
.	.	.	.	.	16g/
.	.	.	.	.	16dd\
.	.	.	.	.	16cc\
4GG/]	.	4GG/]	.	4r	16bny/
.	.	.	.	.	16cc\
.	.	.	.	.	16a/
.	.	.	.	.	16b\
!LO:TX:t=P:problem:kreska pseudotaktowa	!	!LO:TX:t=P:problem:kreska pseudotaktowa	!	!	!
2G\	.	2G\	.	2r	16g/
.	.	.	.	.	16a/
.	.	.	.	.	16b/
.	.	.	.	.	16cc\
.	.	.	.	.	16dd\
.	.	.	.	.	16b/
.	.	.	.	.	16a/
!	!	!	!	!	!LO:TX:t=P:problem:kreska pseudotaktowa
.	.	.	.	.	16b/
*	*	*	*	*custos:g	*
!	!	!	!	!LO:LB:g=original	!
=37-	=37-	=37-	=37-	=37-	=37-
4.C/	.	4.C/	.	8.g/	16cc\
.	.	.	.	.	16ee\
.	.	.	.	.	16gg\
.	.	.	.	32a/	16ff\
.	.	.	.	32bny/	.
.	.	.	.	8cc\	16ee\
.	.	.	.	.	16ff\
8BBny/	.	8BBny/	.	8gg\	16dd\
.	.	.	.	.	16ee\
*	*	*	*	*	*custos:cc
!	!	!	!	!	!LO:LB:g=original
4C/	.	4C/	.	8.ee\	16cc\
.	.	.	.	.	16dd\
.	.	.	.	.	16ee\
.	.	.	.	32dd\	16ff\
.	.	.	.	32cc\	.
4E\	.	4E\	.	8b/	16gg\
.	.	.	.	.	16ee\
!	!	!	!	!LO:TX:t=P:problem:kreska pseudotaktowa	!
.	.	.	.	8g/	16dd\
!	!	!	!	!	!LO:TX:t=P:problem:kreska pseudotaktowa
.	.	.	.	.	16ee\
=38-	=38-	=38-	=38-	=38-	=38-
4.D/	.	4.D/	.	8.a/	16ff\
.	.	.	.	.	16dd\
.	.	.	.	.	16aa\
.	.	.	.	32b/	16gg\
.	.	.	.	32cc\	.
.	.	.	.	8dd\	16ff\
.	.	.	.	.	16gg\
8C#X/	.	8C#X/	.	8gg\	16ee\
.	.	.	.	.	16ff\
4D/	.	4D/	.	8.ff\	4dd\
.	.	.	.	32ee\	.
.	.	.	.	32dd\	.
!	!	!	!	!	!LO:TX:t=P:problem:kreska pseudotaktowa
4A\	#	4A\	#	8cc#X\	4r
!	!	!	!	!LO:TX:t=P:problem:kreska pseudotaktowa	!
.	.	.	.	8a/	.
*custos:F#	*	*custos:F#	*	*	*
!LO:LB:g=original	!	!LO:LB:g=original	!	!	!
=39-	=39-	=39-	=39-	=39-	=39-
4F#X\	.	4F#X\	.	16r	2r
.	.	.	.	16a/	.
.	.	.	.	16dd\	.
.	.	.	.	16ccny\	.
4G\	.	4G\	.	16b/	.
.	.	.	.	16cc\	.
.	.	.	.	16a/	.
.	.	.	.	16b/	.
4E\	.	4E\	.	4g/	16r
.	.	.	.	.	16cc\
.	.	.	.	.	16gg\
.	.	.	.	.	16ff\
!	!	!	!	!LO:TX:t=P:problem:kreska pseudotaktowa	!
4Cny/	.	4Cny/	.	4r	16ee\
.	.	.	.	.	16ff\
.	.	.	.	.	16dd\
!	!	!	!	!	!LO:TX:t=P:problem:kreska pseudotaktowa
.	.	.	.	.	16ee\
=40-	=40-	=40-	=40-	=40-	=40-
4.Fny\	.	4.Fny\	.	16r	8.cc\
.	.	.	.	16f/	.
.	.	.	.	16cc\	.
.	.	.	.	16b/	32dd\
.	.	.	.	.	32ee\
.	.	.	.	16a/	8ff\
.	.	.	.	16b-X/	.
8E\	.	8E\	.	16g/	8bb\
.	.	.	.	16a/	.
*	*	*	*	*custos:f	*
!	!	!	!	!LO:LB:g=original	!
4F\	.	4F\	.	16f/	8.aa\
.	.	.	.	16g/	.
.	.	.	.	16a/	.
.	.	.	.	16b-/	32gg\
.	.	.	.	.	32ff\
!LO:TX:t=P:problem:kreska pseudotaktowa	!	!LO:TX:t=P:problem:kreska pseudotaktowa	!	!	!
4C/	.	4C/	.	16cc\	8ee\
.	.	.	.	16a/	.
.	.	.	.	16g/	8cc\
.	.	.	.	16a/	.
*	*	*	*	*	*custos:a
!	!	!	!	!	!LO:LB:g=original
=41-	=41-	=41-	=41-	=41-	=41-
4G\	-	4G\	-	16b-X/	1r
.	.	.	.	16dd\	.
.	.	.	.	16gg\	.
.	.	.	.	16ff\	.
4C/	.	4C/	.	16ee\	.
.	.	.	.	16ff\	.
.	.	.	.	16dd\	.
.	.	.	.	16ee\	.
2C/	.	2C/	.	16cc\	.
.	.	.	.	16dd\	.
.	.	.	.	16ee\	.
.	.	.	.	16ff\	.
.	.	.	.	16gg\	.
.	.	.	.	16ee\	.
.	.	.	.	16dd\	.
!	!	!	!	!LO:TX:t=P:problem:kreska pseudotaktowa	!
.	.	.	.	16ee\	.
=42-	=42-	=42-	=42-	=42-	=42-
4F\	.	4F\	.	4ff\	8.a/
.	.	.	.	.	32b/
.	.	.	.	.	32cc\
4D/	.	4D/	.	4r	8dd\
.	.	.	.	.	8gg\
4F/	.	4F/	.	2r	8.ff\
.	.	.	.	.	32ee\
.	.	.	.	.	32dd\
!LO:TX:t=P:problem:kreska pseudotaktowa	!	!LO:TX:t=P:problem:kreska pseudotaktowa	!	!	!
4A\	#	4A\	#	.	8cc#X\
!	!	!	!	!	!LO:TX:t=P:problem:kreska pseudotaktowa
.	.	.	.	.	8a/
=43-	=43-	=43-	=43-	=43-	=43-
4.AA/	-	4.AA/	-	8.eny/	1r
.	.	.	.	32f/	.
.	.	.	.	32g/	.
.	.	.	.	8a/	.
8GG#X/	.	8GG#X/	.	8ee\	.
4AA/	.	4AA/	.	8.cc\	.
.	.	.	.	32bny/	.
.	.	.	.	32a/	.
4E\	#	4E\	#	8g#X/	.
.	.	.	.	8e/	.
*	*	*	*	*custos:a	*
!	!	!	!	!LO:LB:g=original	!
=44-	=44-	=44-	=44-	=44-	=44-
4F\	.	4F\	.	8.a/	8.ccny\
.	.	.	.	32b/	32dd\
.	.	.	.	32cc\	32ee\
8D/	.	8D/	.	8dd\	8ff\
8C/	6	8C/	6	8aa\	8bb\
4D/	.	4D/	.	8.ff\	8.aa\
.	.	.	.	32ee\	32gg\
.	.	.	.	32dd\	32ff\
!LO:TX:t=P:problem:kreska pseudotaktowa	!	!LO:TX:t=P:problem:kreska pseudotaktowa	!	!	!
4A\	#	4A\	#	8cc#X\	8ee\
!	!	!	!	!	!LO:TX:t=P:problem:kreska pseudotaktowa
.	.	.	.	8a/	8cc#X\
=45-	=45-	=45-	=45-	=45-	=45-
1D	#	1D	#	1r	16r
.	.	.	.	.	16dd\
.	.	.	.	.	16aa\
.	.	.	.	.	16gg\
.	.	.	.	.	16ff#X\
.	.	.	.	.	16gg\
.	.	.	.	.	16ee\
.	.	.	.	.	16ff#X\
*	*	*	*	*	*custos:dd
!	!	!	!	!	!LO:LB:g=original
.	.	.	.	.	16dd\
.	.	.	.	.	16ee\
.	.	.	.	.	16ff#X\
.	.	.	.	.	16gg\
.	.	.	.	.	16aa\
.	.	.	.	.	16ff#X\
.	.	.	.	.	16ee\
!	!	!	!	!	!LO:TX:t=P:problem:kreska pseudotaktowa
.	.	.	.	.	16ff#X\
=46-	=46-	=46-	=46-	=46-	=46-
1GGny	.	1GGny	.	16r	4gg\
.	.	.	.	16gny/	.
.	.	.	.	16dd\	.
.	.	.	.	16ccny\	.
.	.	.	.	16b/	4r
.	.	.	.	16cc\	.
.	.	.	.	16a/	.
.	.	.	.	16b/	.
.	.	.	.	16g/	2r
.	.	.	.	16a/	.
.	.	.	.	16b/	.
.	.	.	.	16cc\	.
.	.	.	.	16dd\	.
.	.	.	.	16b/	.
.	.	.	.	16a/	.
!	!	!	!	!LO:TX:t=P:problem:kreska pseudotaktowa	!
.	.	.	.	16b/	.
=47-	=47-	=47-	=47-	=47-	=47-
2.C/	.	2.C/	.	4cc\	8.g/
.	.	.	.	.	32a/
.	.	.	.	.	32b/
.	.	.	.	4r	8ccny\
.	.	.	.	.	8gg\
.	.	.	.	16r	8.ee\
.	.	.	.	16cc\	.
.	.	.	.	16gg\	.
.	.	.	.	16ff\	32dd\
.	.	.	.	.	32cc\
4E\	.	4E\	.	16ee\	8b/
.	.	.	.	16ff\	.
!	!	!	!	!	!LO:TX:t=P:problem:kreska pseudotaktowa
.	.	.	.	16dd\	8g/
.	.	.	.	16ee\	.
*	*	*	*	*custos:cc	*
!	!	!	!	!LO:LB:g=original	!
=48-	=48-	=48-	=48-	=48-	=48-
4F\	.	4F\	.	16cc\	16a/
.	.	.	.	16dd\	16b/
.	.	.	.	16ee\	16cc\
.	.	.	.	16ff\	16dd\
4E\	6	4E\	6	16gg\	16ee\
.	.	.	.	16ee\	16cc\
.	.	.	.	16dd\	16b/
.	.	.	.	16ee\	16cc\
!LO:TX:t=P:problem:kreska pseudotaktowa	!	!LO:TX:t=P:problem:kreska pseudotaktowa	!	!	!
2D/	5:6	2D/	5:6	4ff\	16dd\
.	.	.	.	.	16ee\
.	.	.	.	.	16ffny\
.	.	.	.	.	16gg\
!	!	!	!	!LO:TX:t=P:problem:kreska pseudotaktowa	!
.	.	.	.	4r	16aa\
.	.	.	.	.	16ff\
.	.	.	.	.	16ee\
.	.	.	.	.	16ff\
*	*	*	*	*	*custos:gg
!	!	!	!	!	!LO:LB:g=original
=49-	=49-	=49-	=49-	=49-	=49-
4.C/	.	4.C/	.	8.g/	16gg\
.	.	.	.	.	16dd\
.	.	.	.	.	16gg\
.	.	.	.	32a/	16ff\
.	.	.	.	32b/	.
.	.	.	.	8cc\	16ee\
.	.	.	.	.	16ff\
8BB/	.	8BB/	.	8gg\	16dd\
.	.	.	.	.	16ee\
4C/	.	4C/	.	8.ee\	16cc\
.	.	.	.	.	16dd\
.	.	.	.	.	16ee\
.	.	.	.	32dd\	16ff\
.	.	.	.	32cc\	.
4E\	5	4E\	5	8b/	16gg\
.	.	.	.	.	16ee\
!	!	!	!	!LO:TX:t=P:problem:kreska pseudotaktowa	!
.	.	.	.	8g/	16dd\
!	!	!	!	!	!LO:TX:t=P:problem:kreska pseudotaktowa
.	.	.	.	.	16ee\
*custos:D	*	*custos:D	*	*	*
!LO:LB:g=original	!	!LO:LB:g=original	!	!	!
=50-	=50-	=50-	=50-	=50-	=50-
4D/	.	4D/	.	16a/	16ff\
.	.	.	.	16g/	16ee\
.	.	.	.	16a/	16ff\
.	.	.	.	16b/	16dd\
4AA/	.	4AA/	.	16cc\	16ee\
.	.	.	.	16a/	16cc\
.	.	.	.	16g/	16b/
.	.	.	.	16a/	16cc\
!LO:TX:t=P:problem:kreska pseudotaktowa	!	!LO:TX:t=P:problem:kreska pseudotaktowa	!	!	!
2GG/	7:4:3	2GG/	7:4:3	8b/	16dd\
.	.	.	.	.	16dd\
.	.	.	.	8cc\	16gg\
.	.	.	.	.	16ff\
.	.	.	.	8cc\	16ee\
.	.	.	.	.	16ff\
!	!	!	!	!LO:TX:t=P:problem:kreska pseudotaktowa	!
.	.	.	.	8b/	16dd\
!	!	!	!	!	!LO:TX:t=P:problem:kreska pseudotaktowa
.	.	.	.	.	16ee\
=51-	=51-	=51-	=51-	=51-	=51-
2C/	#	2C/	#	4cc\	16cc\
.	.	.	.	.	16dd\
.	.	.	.	.	16ee\
.	.	.	.	.	16ff\
.	.	.	.	4r	16gg\
.	.	.	.	.	16ee\
.	.	.	.	.	16dd\
.	.	.	.	.	16ee\
*	*	*	*	*	*custos:ff#
!	!	!	!	!	!LO:LB:g=original
2D/	4#r	2D/	4#r	16r	8ff#X\
.	.	.	.	16a/	.
.	.	.	.	16dd\	8gg\
.	.	.	.	16cc\	.
.	.	.	.	16b/	8gg\
.	.	.	.	16cc\	.
!	!	!	!	!	!LO:TX:t=P:problem:kreska pseudotaktowa
.	.	.	.	16a/	8ff#X\
.	.	.	.	16b/	.
*	*	*	*	*custos:g	*
!	!	!	!	!LO:LB:g=original	!
=52-	=52-	=52-	=52-	=52-	=52-
2GG/	.	2GG/	.	16g/	4gg\
.	.	.	.	16a/	.
.	.	.	.	16b/	.
.	.	.	.	16cc\	.
.	.	.	.	16dd\	4r
.	.	.	.	16b/	.
.	.	.	.	16a/	.
.	.	.	.	16b/	.
2AA/	#:4#r	2AA/	#:4#r	8cc#X\	16r
.	.	.	.	.	16ee\
.	.	.	.	8dd\	16aa\
.	.	.	.	.	16gg\
.	.	.	.	8dd\	16ff#X\
.	.	.	.	.	16gg\
!	!	!	!	!LO:TX:t=P:problem:kreska pseudotaktowa	!
.	.	.	.	8cc#X\	16ee\
!	!	!	!	!	!LO:TX:t=P:problem:kreska pseudotaktowa
.	.	.	.	.	16ff#X\
=53-	=53-	=53-	=53-	=53-	=53-
2D/	#	2D/	#	4dd\	16dd\
.	.	.	.	.	16ee\
.	.	.	.	.	16ff#X\
.	.	.	.	.	16gg\
.	.	.	.	4r	16aa\
.	.	.	.	.	16ff#X\
.	.	.	.	.	16ee\
.	.	.	.	.	16ff#\
2E\	#:4#r	2E\	#:4#r	16r	8gg#X\
.	.	.	.	16b/	.
.	.	.	.	16ee\	8aa\
.	.	.	.	16dd\	.
.	.	.	.	16cc#X\	8aa\
.	.	.	.	16dd\	.
.	.	.	.	16b/	8gg#X\
!	!	!	!	!LO:TX:t=P:problem:kreska pseudotaktowa	!
.	.	.	.	16cc#\	.
=54-	=54-	=54-	=54-	=54-	=54-
2AA/	#	2AA/	#	16a/	4aa\
.	.	.	.	16b/	.
.	.	.	.	16cc#X\	.
.	.	.	.	16dd\	.
.	.	.	.	16ee\	4r
.	.	.	.	16cc#X\	.
.	.	.	.	16b/	.
.	.	.	.	16cc#X\	.
*	*	*	*	*	*custos:a
!	!	!	!	!	!LO:LB:g=original
4FF#X/	6	4FF#X/	6	4dd\	16r
.	.	.	.	.	16a/
.	.	.	.	.	16dd\
.	.	.	.	.	16cc\
!LO:TX:t=P:problem:kreska pseudotaktowa	!	!LO:TX:t=P:problem:kreska pseudotaktowa	!	!	!
4GG/	.	4GG/	.	4r	16b\
.	.	.	.	.	16cc\
.	.	.	.	.	16a/
!	!	!	!	!	!LO:TX:t=P:problem:kreska pseudotaktowa
.	.	.	.	.	16b/
=55-	=55-	=55-	=55-	=55-	=55-
4.C/	.	4.C/	.	1r	8.g/
.	.	.	.	.	32a/
.	.	.	.	.	32b/
.	.	.	.	.	8cc\
8BB/	.	8BB/	.	.	8ggny\
4C/	.	4C/	.	.	8.ee\
.	.	.	.	.	32dd\
.	.	.	.	.	32cc\
8GG/	.	8GG/	.	.	8b/
!	!	!	!	!	!LO:TX:t=P:problem:kreska pseudotaktowa
8E\	.	8E\	.	.	8g/
=56-	=56-	=56-	=56-	=56-	=56-
4.F\	.	4.F\	.	8.ccny\	16r
.	.	.	.	.	16f/
.	.	.	.	.	16cc\
.	.	.	.	32dd\	16b-X/
.	.	.	.	32ee\	.
.	.	.	.	8ff\	16a/
.	.	.	.	.	16b-X\
8E\	.	8E\	.	8bb\	16g/
.	.	.	.	.	16a/
*	*	*	*	*custos:aa	*
!	!	!	!	!LO:LB:g=original	!
4F\	.	4F\	.	8.aa\	16f/
.	.	.	.	.	16g/
.	.	.	.	.	16a/
.	.	.	.	32gg\	16b-X/
.	.	.	.	32ff\	.
4C/	.	4C/	.	8ee\	16cc\
.	.	.	.	.	16a/
.	.	.	.	8cc\	16g/
!	!	!	!	!	!LO:TX:t=P:problem:kreska pseudotaktowa
.	.	.	.	.	16a/
*	*	*	*	*	*custos:b
!	!	!	!	!	!LO:LB:g=original
=57-	=57-	=57-	=57-	=57-	=57-
4G\	.	4G\	.	16dd\	16bny/
.	.	.	.	16b/	16dd\
.	.	.	.	16a/	16cc\
.	.	.	.	16b/	16dd\
4E\	6	4E\	6	16cc\	16ee\
.	.	.	.	16ee\	16cc\
.	.	.	.	16dd\	16b/
.	.	.	.	16ee\	16cc\
4F\	.	4F\	.	16cc\	16a/
.	.	.	.	16a/	16cc\
.	.	.	.	16g/	16b/
.	.	.	.	16a/	16cc\
!LO:TX:t=P:problem:kreska pseudotaktowa	!	!LO:TX:t=P:problem:kreska pseudotaktowa	!	!	!
4D/	.	4D/	.	16b/	16dd\
.	.	.	.	16dd\	16ffny\
.	.	.	.	16cc\	16ee\
!	!	!	!	!	!LO:TX:t=P:problem:kreska pseudotaktowa
.	.	.	.	16dd\	16ff\
=58-	=58-	=58-	=58-	=58-	=58-
[<2G\	5:6	[<2G\	5:6	8.b/	8.dd\
.	.	.	.	32cc\	32ee\
.	.	.	.	32dd\	32ff\
.	.	.	.	8ee\	8gg\
.	.	.	.	8cc\	8ee\
2G\]	3:4:3	2G\]	3:4:3	8b/	8dd\
.	.	.	.	4cc\	8cc\
.	.	.	.	.	4dd\
.	.	.	.	8b/	.
=59-	=59-	=59-	=59-	=59-	=59-
1C	.	1C	.	1cc	1cc
*	*	*	*	*	*custos:cc
!	!	!	!	!	!LO:PB:g=original
=60-	=60-	=60-	=60-	=60-	=60-
*M3/3	*	*M3/3	*	*M3/2	*M3/2
!LO:TX:b:t=Adagio.	!	!LO:TX:b:t=Adagio.	!	!LO:TX:b:t=adagio.	!LO:TX:b:t=adagio.
1.C	5:6	1.C	5:6	00.r	2cc\
.	.	.	.	.	2g/
.	.	.	.	.	2ee\
=61-	=61-	=61-	=61-	=61-	=61-
1.D	5:6	1.D	5:6	.	2.a/
.	.	.	.	.	4ff\
!	!	!	!	!	!LO:TX:t=P:problem:kreska pseudotaktowa
.	.	.	.	.	2b/
=62-	=62-	=62-	=62-	=62-	=62-
1AA	.	1AA	.	.	2.cc\
.	.	.	.	.	4gg\
2BB/	.	2BB/	.	.	2dd\
*custos:C	*	*custos:C	*	*	*
!LO:LB:g=original	!	!LO:LB:g=original	!	!	!
=63-	=63-	=63-	=63-	=63-	=63-
4C/	.	4C/	.	.	2ee\
4E\	.	4E\	.	.	.
2F\	6 5	2F\	6 5	.	2.dd\
2G\	.	2G\	.	.	.
!	!	!	!	!	!LO:TX:t=P:problem:kreska pseudotaktowa
.	.	.	.	.	4b/
=64-	=64-	=64-	=64-	=64-	=64-
2C/	.	2C/	.	0.r	4cc\
.	.	.	.	.	4gg\
1D	#	1D	#	.	4ff#X\
.	.	.	.	.	4gg\
.	.	.	.	.	4aa\
.	.	.	.	.	8bb\
!	!	!	!	!	!LO:TX:t=P:problem:kreska pseudotaktowa
.	.	.	.	.	8aa\
=65-	=65-	=65-	=65-	=65-	=65-
2.GG/	.	2.GG/	.	.	4gg\
.	.	.	.	.	4dd\
.	.	.	.	.	4b/
4AA/	.	4AA/	.	.	4cc\
!LO:TX:t=P:problem:kreska pseudotaktowa	!	!LO:TX:t=P:problem:kreska pseudotaktowa	!	!	!
2BB/	.	2BB/	.	.	4dd\
.	.	.	.	.	8ee\
!	!	!	!	!	!LO:TX:t=P:problem:kreska pseudotaktowa
.	.	.	.	.	8dd\
=66-	=66-	=66-	=66-	=66-	=66-
2C/	.	2C/	.	1.r	4cc\
.	.	.	.	.	8b/
.	.	.	.	.	8a/
2BB/	6	2BB/	6	.	4g/
.	.	.	.	.	8a/
.	.	.	.	.	8b/
2AA/	.	2AA/	.	.	8cc\
.	.	.	.	.	8dd\
.	.	.	.	.	8ee\
!	!	!	!	!	!LO:TX:t=P:problem:kreska pseudotaktowa
.	.	.	.	.	8ffny\
=67-	=67-	=67-	=67-	=67-	=67-
2GG/	.	2GG/	.	2g/	2gg\
2AA/	.	2AA/	.	2c/	2r
!LO:TX:t=P:problem:kreska pseudotaktowa	!	!LO:TX:t=P:problem:kreska pseudotaktowa	!	!	!
2FF#X/	.	2FF#X/	.	2a/	2r
*	*	*	*	*	*custos:g
!	!	!	!	!	!LO:LB:g=original
=68-	=68-	=68-	=68-	=68-	=68-
1GG	.	1GG	.	2.d/	00.r
.	.	.	.	4b/	.
2AA/	#	2AA/	#	2e/	.
*	*	*	*	*custos:f#	*
!	!	!	!	!LO:LB:g=original	!
=69-	=69-	=69-	=69-	=69-	=69-
1D	#	1D	#	2.f#X/	.
.	.	.	.	4dd\	.
!LO:TX:t=P:problem:kreska pseudotaktowa	!	!LO:TX:t=P:problem:kreska pseudotaktowa	!	!	!
2E\	-	2E\	-	2g/	.
=70-	=70-	=70-	=70-	=70-	=70-
2BB/	6	2BB/	6	2b/	.
2C/	6 5	2C/	6 5	2.a/	.
2D/	#	2D/	#	.	.
!	!	!	!	!LO:TX:t=P:problem:kreska pseudotaktowa	!
.	.	.	.	4f#X/	.
=71-	=71-	=71-	=71-	=71-	=71-
2.GG/	.	2.GG/	.	4g/	.
.	.	.	.	4dd\	.
.	.	.	.	4b/	.
4AA/	.	4AA/	.	4cc\	.
2BB/	.	2BB/	.	4dd\	.
.	.	.	.	8ee\	.
!	!	!	!	!LO:TX:t=P:problem:kreska pseudotaktowa	!
.	.	.	.	8dd\	.
=72-	=72-	=72-	=72-	=72-	=72-
2.C/	.	2.C/	.	4cc\	0.r
.	.	.	.	4g/	.
.	.	.	.	4e/	.
4D/	.	4D/	.	4fny/	.
!LO:TX:t=P:problem:kreska pseudotaktowa	!	!LO:TX:t=P:problem:kreska pseudotaktowa	!	!	!
2E\	.	2E\	.	4g/	.
.	.	.	.	8a/	.
!	!	!	!	!LO:TX:t=P:problem:kreska pseudotaktowa	!
.	.	.	.	8g/	.
=73-	=73-	=73-	=73-	=73-	=73-
2F\	.	2F\	.	4f/	.
.	.	.	.	8e/	.
.	.	.	.	8d/	.
2E\	6	2E\	6	4c/	.
.	.	.	.	8d/	.
.	.	.	.	8e/	.
2D/	6	2D/	6	8f/	.
.	.	.	.	8g/	.
.	.	.	.	8a/	.
.	.	.	.	8b/	.
=74-	=74-	=74-	=74-	=74-	=74-
2.C/	.	2.C/	.	2cc\	2g/
.	.	.	.	2r	2c/
4AA/	.	4AA/	.	.	.
2FFny/	.	2FFny/	.	2r	2a/
*custos:GG	*	*custos:GG	*	*	*
!LO:LB:g=original	!	!LO:LB:g=original	!	!	!
=75-	=75-	=75-	=75-	=75-	=75-
1GG	.	1GG	.	1.r	2.d/
.	.	.	.	.	4b/
!	!	!	!	!	!LO:TX:t=P:problem:kreska pseudotaktowa
2C/	.	2C/	.	.	2e/
=76-	=76-	=76-	=76-	=76-	=76-
1D	.	1D	.	2dd\	2.f#X/
.	.	.	.	2a/	.
.	.	.	.	.	4dd\
!LO:TX:t=P:problem:kreska pseudotaktowa	!	!LO:TX:t=P:problem:kreska pseudotaktowa	!	!	!
2.E\	6	2.E\	6	2cc\	2g/
=77-	=77-	=77-	=77-	=77-	=77-
.	.	.	.	2.g/	2b/
4D/	6	4D/	6	.	.
2C/	6	2C/	6	.	2.a/
.	.	.	.	4ee\	.
2D/	#	2D/	#	2a/	.
!	!	!	!	!	!LO:TX:t=P:problem:kreska pseudotaktowa
.	.	.	.	.	4f#X/
*	*	*	*	*custos:b	*
!	!	!	!	!LO:LB:g=original	!
=78-	=78-	=78-	=78-	=78-	=78-
1GG	.	1GG	.	2.b/	4g/
.	.	.	.	.	4aa\
.	.	.	.	.	4dd\
.	.	.	.	4gg\	4ee\
2AA/	6	2AA/	6	2cc\	4ff\
.	.	.	.	.	8gg\
.	.	.	.	.	8ff\
=79-	=79-	=79-	=79-	=79-	=79-
2C/	.	2C/	.	2ee\	4ee\
.	.	.	.	.	4cc\
!LO:TX:t=P:problem:kreska pseudotaktowa	!	!LO:TX:t=P:problem:kreska pseudotaktowa	!	!	!
1G	.	1G	.	2.dd\	4b/
.	.	.	.	.	4cc\
.	.	.	.	.	4dd\
!	!	!	!	!LO:TX:t=P:problem:kreska pseudotaktowa	!
.	.	.	.	4b/	8ee\
.	.	.	.	.	8dd\
=80-	=80-	=80-	=80-	=80-	=80-
1C	.	1C	.	4cc\	2cc\
.	.	.	.	4cc\	.
.	.	.	.	4g/	2r
.	.	.	.	4a/	.
2G\	-	2G\	-	4b-X/	2r
.	.	.	.	8cc\	.
.	.	.	.	8b-/	.
=81-	=81-	=81-	=81-	=81-	=81-
2F\	.	2F\	.	4a/	1.r
.	.	.	.	4f/	.
2C/	.	2C/	.	4e/	.
.	.	.	.	4f/	.
2E\	.	2E\	.	4g/	.
.	.	.	.	8a/	.
!	!	!	!	!LO:TX:t=P:problem:kreska pseudotaktowa	!
.	.	.	.	8g/	.
=82-	=82-	=82-	=82-	=82-	=82-
1D	.	1D	.	2f/	4r
.	.	.	.	.	4dd\
.	.	.	.	2r	4a/
.	.	.	.	.	4b/
2AA/	.	2AA/	.	2r	4cc\
.	.	.	.	.	8dd\
.	.	.	.	.	8cc\
*	*	*	*	*	*custos:b
!	!	!	!	!	!LO:LB:g=original
=83-	=83-	=83-	=83-	=83-	=83-
2E\	5	2E\	5	4r	2b/
.	.	.	.	4gg\	.
2G\	.	2G\	.	4dd\	2r
.	.	.	.	4ee\	.
!LO:TX:t=P:problem:kreska pseudotaktowa	!	!LO:TX:t=P:problem:kreska pseudotaktowa	!	!	!
2D/	.	2D/	.	4ff\	2r
.	.	.	.	8gg\	.
.	.	.	.	8ff\	.
=84-	=84-	=84-	=84-	=84-	=84-
2C/	.	2C/	.	2ee\	4cc\
.	.	.	.	.	8b/
.	.	.	.	.	8a/
2BB/	6	2BB/	6	2r	4g/
.	.	.	.	.	8a/
.	.	.	.	.	8b/
2AA/	6	2AA/	6	2r	8cc\
.	.	.	.	.	8dd\
.	.	.	.	.	8ee\
.	.	.	.	.	8ff\
=85-	=85-	=85-	=85-	=85-	=85-
2GG/	.	2GG/	.	4g/	2gg\
.	.	.	.	8f/	.
.	.	.	.	8e/	.
4G\	.	4G\	.	4d/	2r
4F\	.	4F\	.	8e/	.
.	.	.	.	8f/	.
!LO:TX:t=P:problem:kreska pseudotaktowa	!	!LO:TX:t=P:problem:kreska pseudotaktowa	!	!	!
2E\	6	2E\	6	8g/	2r
.	.	.	.	8a/	.
.	.	.	.	8bny/	.
.	.	.	.	8cc\	.
=86-	=86-	=86-	=86-	=86-	=86-
1.D	-	1.D	-	4dd\	2dd\
.	.	.	.	4gg\	.
*	*	*	*	*custos:ff	*
!	!	!	!	!LO:LB:g=original	!
.	.	.	.	4ff\	2a/
.	.	.	.	4gg\	.
.	.	.	.	4aa\	2ff\
.	.	.	.	8bb\	.
.	.	.	.	8aa\	.
=87-	=87-	=87-	=87-	=87-	=87-
1.E	5:6 #	1.E	5:6 #	4gg\	2.b/
.	.	.	.	4gg\	.
.	.	.	.	4.ee\	.
.	.	.	.	.	4gg\
.	.	.	.	8ff\	.
!	!	!	!	!	!LO:TX:t=P:problem:kreska pseudotaktowa
.	.	.	.	4gg\	2cc#X\
.	.	.	.	8aa\	.
!	!	!	!	!LO:TX:t=P:problem:kreska pseudotaktowa	!
.	.	.	.	8gg\	.
=88-	=88-	=88-	=88-	=88-	=88-
2F\	6	2F\	6	2ff\	2.dd\
2G\	-	2G\	-	2r	.
.	.	.	.	.	4bb-X\
2A\	.	2A\	.	2r	2ee\
=89-	=89-	=89-	=89-	=89-	=89-
2D/	.	2D/	.	4r	2ff\
.	.	.	.	4dd\	.
1A	#	1A	#	4cc#X\	2.ee\
.	.	.	.	4dd\	.
.	.	.	.	4ee\	.
!	!	!	!	!	!LO:TX:t=P:problem:kreska pseudotaktowa
.	.	.	.	8ff\	4cc#X\
.	.	.	.	8ee\	.
=90-	=90-	=90-	=90-	=90-	=90-
2D/	.	2D/	.	4dd\	2dd\
.	.	.	.	4a/	.
1E	#	1E	#	4g#X/	2r
.	.	.	.	4a/	.
.	.	.	.	4b/	2r
.	.	.	.	8ccny\	.
!	!	!	!	!LO:TX:t=P:problem:kreska pseudotaktowa	!
.	.	.	.	8b/	.
*custos:AA	*	*custos:AA	*	*	*
!LO:LB:g=original	!	!LO:LB:g=original	!	!	!
=91-	=91-	=91-	=91-	=91-	=91-
2AA/	.	2AA/	.	4a/	1.r
.	.	.	.	8gny/	.
.	.	.	.	8f/	.
4A\	.	4A\	.	4e/	.
4G\	.	4G\	.	8f/	.
.	.	.	.	8g/	.
!LO:TX:t=P:problem:kreska pseudotaktowa	!	!LO:TX:t=P:problem:kreska pseudotaktowa	!	!	!
2F\	.	2F\	.	8a/	.
.	.	.	.	8b/	.
.	.	.	.	8cc\	.
.	.	.	.	8dd\	.
=92-	=92-	=92-	=92-	=92-	=92-
1E	.	1E	.	2ee\	4r
.	.	.	.	.	4b/
.	.	.	.	2r	4g/
.	.	.	.	.	4a/
2BB/	.	2BB/	.	2r	4b/
.	.	.	.	.	8ccny\
!	!	!	!	!	!LO:TX:t=P:problem:kreska pseudotaktowa
.	.	.	.	.	8b/
*	*	*	*	*	*custos:a
!	!	!	!	!	!LO:LB:g=original
=93-	=93-	=93-	=93-	=93-	=93-
1D	.	1D	.	0.r	4a/
.	.	.	.	.	4dd\
.	.	.	.	.	4a/
.	.	.	.	.	4b/
!LO:TX:t=P:problem:kreska pseudotaktowa	!	!LO:TX:t=P:problem:kreska pseudotaktowa	!	!	!
2AA/	.	2AA/	.	.	4cc\
.	.	.	.	.	8dd\
.	.	.	.	.	8cc\
=94-	=94-	=94-	=94-	=94-	=94-
2E\	.	2E\	.	.	4b/
.	.	.	.	.	4gg\
2F\	6	2F\	6	.	4dd\
.	.	.	.	.	4ee\
2D/	6	2D/	6	.	4ff\
.	.	.	.	.	8gg\
!	!	!	!	!	!LO:TX:t=P:problem:kreska pseudotaktowa
.	.	.	.	.	8ff\
*	*	*	*	*custos:cc	*
!	!	!	!	!LO:PB:g=original	!
=95-	=95-	=95-	=95-	=95-	=95-
1.C	.	1.C	.	2cc\	4ee\
.	.	.	.	.	4gg\
.	.	.	.	2g/	4ee\
.	.	.	.	.	4ff\
.	.	.	.	2ee\	4gg\
.	.	.	.	.	8aa\
!	!	!	!	!	!LO:TX:t=P:problem:kreska pseudotaktowa
.	.	.	.	.	8gg\
=96-	=96-	=96-	=96-	=96-	=96-
1F	.	1F	.	2.a/	2ff\
.	.	.	.	.	2r
.	.	.	.	4ff\	.
!LO:TX:t=P:problem:kreska pseudotaktowa	!	!LO:TX:t=P:problem:kreska pseudotaktowa	!	!	!
2G\	.	2G\	.	2b/	2r
=97-	=97-	=97-	=97-	=97-	=97-
1A	.	1A	.	2.cc\	4ff\
.	.	.	.	.	8ee\
.	.	.	.	.	8dd\
.	.	.	.	.	4cc\
.	.	.	.	4aa\	8dd\
.	.	.	.	.	8ee\
!	!	!	!	!LO:TX:t=P:problem:kreska pseudotaktowa	!
2F\	6	2F\	6	2dd\	8ff\
.	.	.	.	.	8gg\
.	.	.	.	.	8aa\
!	!	!	!	!	!LO:TX:t=P:problem:kreska pseudotaktowa
.	.	.	.	.	8bbny\
=98-	=98-	=98-	=98-	=98-	=98-
2C/	.	2C/	.	4ee\	4ccc\
.	.	.	.	4cc\	4ee\
2F\	.	2F\	.	4a/	4cc\
.	.	.	.	4b/	4dd\
2E\	6	2E\	6	4cc\	4ee\
.	.	.	.	8dd\	8ff\
.	.	.	.	8cc\	8ee\
=99-	=99-	=99-	=99-	=99-	=99-
!LO:TX:t=P:problem:kreska pseudotaktowa	!	!LO:TX:t=P:problem:kreska pseudotaktowa	!	!	!
1.G	.	1.G	.	4b/	4dd\
.	.	.	.	4b/	4dd\
*	*	*	*	*	*custos:b
!	!	!	!	!	!LO:LB:g=original
.	.	.	.	4g/	4b/
.	.	.	.	4a/	4cc\
.	.	.	.	4b/	4dd\
.	.	.	.	8cc\	8ee\
!	!	!	!	!LO:TX:t=P:problem:kreska pseudotaktowa	!LO:TX:t=P:problem:kreska pseudotaktowa
.	.	.	.	8b/	8dd\
=100-	=100-	=100-	=100-	=100-	=100-
2A\	.	2A\	.	4a/	4cc\
.	.	.	.	8g/	8b/
.	.	.	.	8f/	8a/
2c\	.	2c\	.	4e/	4g/
.	.	.	.	8f/	8a/
.	.	.	.	8g/	8b/
2A\	.	2A\	.	8a/	8cc\
.	.	.	.	8b/	8dd\
.	.	.	.	8cc\	8ee\
!	!	!	!	!LO:TX:t=P:problem:kreska pseudotaktowa	!
.	.	.	.	8dd\	8ff\
=101-	=101-	=101-	=101-	=101-	=101-
1E	6	1E	6	2ee\	2.gg\
.	.	.	.	2.cc\	.
.	.	.	.	.	4ee\
!	!	!	!	!	!LO:TX:t=P:problem:kreska pseudotaktowa
2F\	.	2F\	.	.	2aa\
.	.	.	.	4a/	.
=102-	=102-	=102-	=102-	=102-	=102-
1G	5:6	1G	5:6	2.b/	4dd\
.	.	.	.	.	4g/
.	.	.	.	.	2.ee\
.	.	.	.	4e/	.
2A\	.	2A\	.	2cc\	.
.	.	.	.	.	4cc\
*	*	*	*	*custos:cc	*
!	!	!	!	!LO:LB:g=original	!
=103-	=103-	=103-	=103-	=103-	=103-
2F\	6 5	2F\	6 5	2cc\	1.dd
1G	4:3	1G	4:3	1b	.
=104-	=104-	=104-	=104-	=104-	=104-
*M2/2	*	*M2/2	*	*M2/2	*M2/2
*met(C|)	*	*met(C|)	*	*met(C|)	*met(C|)
4C/	.	4C/	.	2cc\	4cc\
4EE/	.	4EE/	.	.	8g/
.	.	.	.	.	8ee\
4FF/	.	4FF/	.	2r	8a/
.	.	.	.	.	8ff\
!	!	!	!	!	!LO:TX:t=P:problem:kreska pseudotaktowa
4GG/	.	4GG/	.	.	4b/
=105-	=105-	=105-	=105-	=105-	=105-
4AA/	.	4AA/	.	2r	8cc\
.	.	.	.	.	8aa\
4BB/	.	4BB/	.	.	4dd\
4C/	.	4C/	.	4g/	4ee\
4AA/	.	4AA/	.	8c/	4r
.	.	.	.	8a/	.
*custos:GG	*	*custos:BB	*	*	*
!LO:LB:g=original	!	!LO:LB:g=original	!	!	!
=106-	=106-	=106-	=106-	=106-	=106-
4GG/	.	4GG/	.	8d/	4cc\
.	.	.	.	8b/	.
4AA/	.	4AA/	.	4e/	8g/
.	.	.	.	.	8ee\
4BB/	.	4BB/	.	8f/	4a/
.	.	.	.	8dd\	.
4C\	.	4C\	.	4g/	8ee\
.	.	.	.	.	8gg\
*	*	*	*	*	*custos:cc
!	!	!	!	!	!LO:LB:g=original
=107-	=107-	=107-	=107-	=107-	=107-
1D	.	1D	.	8a/	4cc\
.	.	.	.	8cc\	.
.	.	.	.	4f/	8aa\
.	.	.	.	.	8bb\
.	.	.	.	8ff\	2aa\
.	.	.	.	8gg\	.
.	.	.	.	4ff\	.
=108-	=108-	=108-	=108-	=108-	=108-
0C;	.	0C;	.	0ee;<	0gg;<
==	==	==	==	==	==
*-	*-	*-	*-	*-	*-
!!!system-decoration: [(s1,s2)]s3,s4
!!!RDF**kern: > = above
!!!RDF**kern: < = below
!!!ENC: Andrzej Gręziak
!!!END: 2022-11-08
!!!ENC: Natalia Wrzos
!!!END: 2022-11-26
